X: 2028
T: Half of a Hole
R: jig
C: Rick Gagne
N: 1988 on whistle
M: 6/8
K: G
B | "Bm"dBe dBA | "Em"G2G GAB | "C"cAe dBe | "D"dBA ABc | 
"Bm"dBe dBA | "C"G2G GAB | "Am"cgc fce | "D"dBA "G"G2 :|
d | "G"g2g Bcd | "Em"g2g agd | "C"ecf cgc | "D"fed def | 
"G"g2g Bcd | "Em"g2g agd | "C"ecf cgc | "D"fed "G"g2d |
"G"g2g Bcd | "Em"g2g agd | "C"ecf cgc | "D"fed def |
"Bm"dBe dBA | "C"G2G GAB | "Am"cgc fce | "D"dBA "G"G2 ||
